X:1
T:Modinha
T:Modinha
T:pour chant et guitare
T:H. Villa-Lobos
C:H. Villa-Lobos
%%score 1 ( 2 3 4 )
L:1/8
Q:1/4=90
M:2/2
K:G
V:1 treble nm="Flute" snm="F."
V:2 treble-8 nm="Guitar" snm="G."
V:3 treble-8 
V:4 treble-8 
V:1
 z8 | z8 | z8 | z8 | z8 | z8 | z8 | z4 z2 z B |[M:4/4] BAce g2 f2 | feGB d3 c | BAEF B2 A2 | %11
 ^G2 D=F GBdc | BAce g2 f2 | z8 | z8 | z8 | z8 | z8 | z8 | z8 | z8 | z8 | z8 | z8 | z8 | z8 | z8 | %27
 z8 | z8 | z8 | z8 | z8 |] %32
V:2
 !>![E,e]8 | A,8 | !>![E,e]8 | A,8 | !>![E,e]8 | !>![Dg]8 | !>![E,e]8 | !>!e8 |[M:4/4] B8 | B8 | %10
 !>!B4 !>!B2 !>!A2 | [E,^G]8 | B8 | z8 | z8 | z8 | z8 | z8 | z8 | z8 | z8 | z8 | z8 | z8 | z8 | %25
 z8 | z8 | z8 | z8 | z8 | z8 | z8 |] %32
V:3
 z DG[DGB] z G[DGB] z | z Gc[ce] z e[ce] z | z DG[DGB] z G[DGB] z | z Gc[ce] z e[ce] z | %4
 z DG[DGB] z G[DGB] z | z Gc[GBd] z c[Gcd] z | z DG[DGB] z G[DGB] z | %7
 z .[AB]/.G/ .F/.E/.D/.C/ .B,/.G,/.E,/ z/ z2 |[M:4/4] [A,EG] z z [EG] A, z [EG] z | %9
 [G,EG] z z [EG] E, z [EG] z | [A,EA] z [EA] z [=F,_EA] z E z | D^C =C2 B,2 _B,2 | %12
 [A,E=G] z z [EG] A, z [EG] z | x8 | x8 | x8 | x8 | x8 | x8 | x8 | x8 | x8 | x8 | x8 | x8 | x8 | %26
 x8 | x8 | x8 | x8 | x8 | x8 |] %32
V:4
 x8 | !>!b3 !>!a- a2 !>!g2 | z8 | !>!b3 !>!a- a2 !>!g2 | x8 | x8 | x8 | x8 |[M:4/4] x8 | x8 | x8 | %11
 x8 | x8 | x8 | x8 | x8 | x8 | x8 | x8 | x8 | x8 | x8 | x8 | x8 | x8 | x8 | x8 | x8 | x8 | x8 | %30
 x8 | x8 |] %32

